icons/Vimeo.svg

<?xml version="1.0" encoding="utf-8"?>
<svg version="1.1" viewBox="0 0 1200 1200" xmlns="http://www.w3.org/2000/svg">
<!-- Based on vimeo_icon_white_on_blue_rounded.eps from https://vimeo.com/about/brand_guidelines -->
<path fill="#1ab7ea" d="m1200 1080c0 66.27-53.73 120-120 120h-960c-66.27 0-120-53.7-120-120v-960c0-66.27 53.73-120 120-120h960c66.27 0 120 53.73 120 120v960" />
<path fill="#ffffff" d="m1009.7 398.5c-3.8 84.41-62.78 199.97-176.82 346.68-117.91 153.19-217.67 229.82-299.24 229.82-50.57 0-93.34-46.63-128.29-139.96-23.33-85.55-46.64-171.09-69.98-256.64-25.96-93.28-53.78-139.97-83.56-139.97-6.493 0-29.192 13.652-68.063 40.836l-40.781-52.539c42.797-37.598 85.008-75.192 126.54-112.84 57.082-49.301 99.961-75.246 128.52-77.863 67.465-6.489 109.01 39.636 124.59 138.37 16.852 106.54 28.524 172.79 35.063 198.72 19.476 88.39 40.886 132.54 64.254 132.54 18.128 0 45.41-28.665 81.773-86.028 36.293-57.316 55.746-100.93 58.371-130.92 5.191-49.472-14.273-74.265-58.371-74.265-20.766 0-42.176 4.773-64.195 14.214 42.632-139.57 124.05-207.36 244.23-203.49 89.109 2.617 131.13 60.395 125.98 173.35" />
</svg>

<?xml version="1.0" encoding="utf-8"?>
<svg version="1.1" viewBox="0 0 1200 1200" xmlns="http://www.w3.org/2000/svg">
<!-- Based on vimeo_icon_white_on_blue_rounded.eps from https://vimeo.com/about/brand_guidelines -->
<path fill="#1ab7ea" d="m 1200,1080 c 0,66.2695 -53.73,120 -120,120 l -960,0 C 53.7305,1200 0,1146.2695 0,1080 L 0,120 C 0,53.73 53.7305,0 120,0 l 960,0 c 66.27,0 120,53.73 120,120 l 0,960" />
<path fill="#ffffff" d="M 1009.73,398.504 C 1005.87,482.906 946.922,598.473 832.875,745.176 714.973,898.371 615.211,975 533.637,975 483.07,975 440.297,928.367 405.352,835.035 382.02,749.488 358.711,663.949 335.367,578.395 309.41,485.121 281.59,438.426 251.813,438.426 c -6.493,0 -29.192,13.652 -68.063,40.836 l -40.781,-52.539 c 42.797,-37.598 85.008,-75.192 126.539,-112.844 57.082,-49.301 99.961,-75.246 128.519,-77.863 67.465,-6.489 109.008,39.636 124.594,138.367 16.852,106.539 28.524,172.789 35.063,198.719 19.476,88.39 40.886,132.543 64.254,132.543 18.128,0 45.41,-28.665 81.773,-86.028 36.293,-57.316 55.746,-100.933 58.371,-130.918 5.191,-49.472 -14.273,-74.265 -58.371,-74.265 -20.766,0 -42.176,4.773 -64.195,14.214 42.632,-139.57 124.054,-207.359 244.23,-203.492 89.109,2.617 131.134,60.395 125.984,173.348" />
</svg>
